Numix-GalliumOS/48/actions/document-export.svg

<?xml version="1.0" encoding="UTF-8" standalone="no"?>
<svg
   xmlns:dc="http://purl.org/dc/elements/1.1/"
   xmlns:cc="http://creativecommons.org/ns#"
   xmlns:rdf="http://www.w3.org/1999/02/22-rdf-syntax-ns#"
   xmlns:svg="http://www.w3.org/2000/svg"
   xmlns="http://www.w3.org/2000/svg"
   xmlns:sodipodi="http://sodipodi.sourceforge.net/DTD/sodipodi-0.dtd"
   xmlns:inkscape="http://www.inkscape.org/namespaces/inkscape"
   width="48"
   height="48"
   viewBox="0 0 48 48"
   id="svg2"
   version="1.1"
   inkscape:version="0.91 r13725"
   sodipodi:docname="document-export.svg">
  <metadata
     id="metadata14">
    <rdf:RDF>
      <cc:Work
         rdf:about="">
        <dc:format>image/svg+xml</dc:format>
        <dc:type
           rdf:resource="http://purl.org/dc/dcmitype/StillImage" />
        <dc:title></dc:title>
      </cc:Work>
    </rdf:RDF>
  </metadata>
  <defs
     id="defs12" />
  <sodipodi:namedview
     pagecolor="#ffffff"
     bordercolor="#666666"
     borderopacity="1"
     objecttolerance="10"
     gridtolerance="10"
     guidetolerance="10"
     inkscape:pageopacity="0"
     inkscape:pageshadow="2"
     inkscape:window-width="1366"
     inkscape:window-height="704"
     id="namedview10"
     showgrid="true"
     inkscape:zoom="13.906433"
     inkscape:cx="28.417545"
     inkscape:cy="21.966102"
     inkscape:window-x="0"
     inkscape:window-y="27"
     inkscape:window-maximized="1"
     inkscape:current-layer="svg2">
    <inkscape:grid
       type="xygrid"
       id="grid4144" />
  </sodipodi:namedview>
  <g
     style="fill-rule:evenodd"
     id="g4">
    <path
       style="fill:#fff"
       d="M 8 6 L 28 6 C 32 6 32 6 32 10 L 32 38 C 32 42 32 42 28 42 L 8 42 C 4 42 4 42 4 38 L 4 10 C 4 6 4 6 8 6 Z "
       id="path6" />
    <path
       style="fill:#268bd2"
       d="m 29.945364,37.674727 13.76964,-10.781234 c 3.049845,-2.387942 3.041205,-3.009441 0,-5.390617 L 29.945364,10.721641 C 28.026658,9.2193491 28,10.024842 28,13.49352 27.96089,14.841175 28,18 28,18 c -0.03129,0 0.0313,0 0,0 C 14.316421,18 7.9139405,26.893493 8.0000012,37.758955 13.421796,32.28411 19.738216,29.9104 28,30.078858 l 0,3.920448 c 0,1.960225 0.02857,5.003932 1.945364,3.675421 z"
       id="path8"
       inkscape:connector-curvature="0"
       sodipodi:nodetypes="csssccscccc" />
  </g>
</svg>

<svg xmlns="http://www.w3.org/2000/svg" viewBox="0 0 48 48">
 <g style="fill-rule:evenodd">
  <path d="m 8 6 l 20 0 c 4 0 4 0 4 4 l 0 28 c 0 4 0 4 -4 4 l -20 0 c -4 0 -4 0 -4 -4 l 0 -28 c 0 -4 0 -4 4 -4 Z" style="fill:#fff"/>
  <path d="m 29.945 37.675 13.77 -10.781 c 3.05 -2.388 3.041 -3.01 0 -5.391 l -13.77 -10.781 c -1.919 -1.502 -1.945 -0.697 -1.945 2.772 -0.039 1.348 0 4.506 0 4.506 c -0.031 0 0.031 0 0 0 c -13.684 0 -20.09 8.893 -20 19.759 5.422 -5.475 11.738 -7.849 20 -7.68 l 0 3.92 c 0 1.96 0.029 5 1.945 3.675 z" style="fill:#268bd2"/>
 </g>
</svg>
